X: 41599
T: Up Da Stroods
R: reel
M: 4/4
K: Bminor
|:[F3B3]B d(B {d}BA)|(3BB(B d)(B {d}BA) F(A|{BA}B2) (3BB(B A)(Bde)|faef d(BAF)|
([(FA]([F)B] B2) d)(B {d}BA)|(3BB(B d)(B {d}BA) F(A|{BA}B2) (3BB(B A)(Bde)|1 faef d(cBA):|2 faef dBA(F||
|:[D2)A2] {b}ag fede|([Ae]fa)(f ~f2)a(^g|f^g)ag fed(e|fa)ef dBA(F|
[D2)A2] {b}ag fede|([Ae]fa)(f ~f2)([Ae](f|f))(^gag) fed(e|fa)ef dBA(F:|

